X: 1
T: The Gael  [Dm]
C: tune: Dougie MacLean
C: descant: Trevor Jones
R: jig
Z: 2012 John Chambers <jc:trillian.mit.edu>
M: 6/8
L: 1/8
K: Ddor
|:\
"Dm"~A,2A, FED | EDC DCG, | "Dm"~A,2A, FED | EDC DCA, |\
"C"~C2C ~E2E | GEE EDE | "C"~C2C ~E2E | GEE EDE |
"Dm"~F2F FEF | GFF FED | "C"~E2E EDE | GEE EDC |\
"Dm"~D2D DCD | FED A,DD | ~D3 DCD | FED "C"EDC :| "Dm"HD6 |]
%
P: (Descant)
M: 6/8
|: f3- f3- | f3 (2ed | A3- A3- | A3 (2df | (2eg- g3- | g3- (2gf | e3- e3- | e3- e3 |
(2fa- a3- | a3 (2gf | (2eg- g3- | g3- g2e | (2ed- d3- | d3- d3- | d3- d3- | d3 z3 :|

%%sep 1 1 500

